src/Icons/icons/refresh.svg

<svg viewBox="0 0 13 12" fill="#4C4C4C" xmlns="http://www.w3.org/2000/svg">
<path d="M12.9781 5.44192C12.8105 3.24346 11.3022 1.18303 9.32062 0.433776L9.15303 0.374625V0.552078C9.15303 0.995713 9.16288 1.97171 9.16288 1.97171V2.04072L9.22204 2.08015C9.22204 2.08015 9.32062 2.1393 9.34034 2.14916C10.8783 3.09558 11.7064 4.92927 11.4008 6.70381C11.1839 7.93613 10.4544 9.02057 9.38963 9.70081C8.33477 10.3712 7.05316 10.5782 5.87013 10.2529C4.60824 9.91769 3.55337 9.06 2.98158 7.88683C2.41964 6.73338 2.39007 5.40248 2.88299 4.23917C3.01115 3.93356 3.37592 3.31247 3.4055 3.26318L4.72654 4.58422C4.77583 4.34762 5.38706 1.31119 5.65324 0C5.55466 0.0197171 1.63096 0.788683 1.0493 0.897127L2.33091 2.17874L2.3112 2.19846C0.635245 4.3279 0.556377 7.22631 2.09431 9.41491C3.2379 11.0416 5.06173 11.9584 6.98415 11.9584C7.62495 11.9584 8.28547 11.8598 8.92628 11.6429C11.0459 10.9331 13.2246 8.69523 12.9781 5.44192Z"/>
</svg>

<svg viewBox="0 0 13 12" fill="#4C4C4C" xmlns="http://www.w3.org/2000/svg"><path d="M12.978 5.442C12.81 3.243 11.302 1.183 9.321.434l-.168-.06v.178c0 .444.01 1.42.01 1.42v.069l.059.04.118.068a4.5 4.5 0 012.06 4.555A4.482 4.482 0 019.39 9.7c-1.055.67-2.337.877-3.52.552a4.485 4.485 0 01-2.888-2.366 4.406 4.406 0 01-.099-3.648c.128-.305.493-.927.522-.976l1.322 1.321c.049-.236.66-3.273.926-4.584-.098.02-4.022.789-4.604.897L2.331 2.18l-.02.02C.635 4.327.556 7.225 2.094 9.414a5.956 5.956 0 004.89 2.543c.641 0 1.301-.098 1.942-.315 2.12-.71 4.299-2.948 4.052-6.201z"/></svg>
